!!!COA:	Josquin des Prez
!!!CDT:	~1450-1521/08/27
!!!OPR:	Missa Mater patris
!!!ONM:	3
!!!OTL:	Credo
!!!AGN:	Mass; Credo
!!!SCT:	NJE 10.1
!!!SCA:	New Josquin Edition 10.1
!!!voices: 4
!!!voices-OPR: 4(-5)
**kern	**kern	**kern	**kern
*staff4	*staff3	*staff2	*staff1
*Ivox	*Ivox	*Ivox	*Ivox
*I"Bassus	*I"Tenor	*I"Altus2	*I"Altus1
*I'B	*I'T	*I'A2	*I'A1
*>[A,B,C]	*>[A,B,C]	*>[A,B,C]	*>[A,B,C]
*>Patrem[A]	*>Patrem[A]	*>Patrem[A]	*>Patrem[A]
*>Crucifixus[B]	*>Crucifixus[B]	*>Crucifixus[B]	*>Crucifixus[B]
*>Spiritum[C]	*>Spiritum[C]	*>Spiritum[C]	*>Spiritum[C]
*clefF4	*clefGv2	*clefGv2	*clefGv2
*>A	*>A	*>A	*>A
*k[b-]	*k[b-]	*k[b-]	*k[b-]
*M2/1	*M2/1	*M2/1	*M2/1
*met(C|)	*met(C|)	*met(C|)	*met(C|)
=1-	=1-	=1-	=1-
!!section: Patrem
!!!OMD: Patrem
0G	0r	0r	0r
=2	=2	=2	=2
1G	0r	0r	0r
1F	.	.	.
=3	=3	=3	=3
1.B-	0r	0G	0r
2G\	.	.	.
=4	=4	=4	=4
1B-	0r	1G	0r
1c	.	1F	.
=5	=5	=5	=5
2d\	0r	1.B-	0r
2.G\	.	.	.
4A\	.	.	.
[2B-\	.	2G/	.
=6	=6	=6	=6
4B-\]	0r	1B-	0r
4A\	.	.	.
4G\	.	.	.
4F\	.	.	.
1E	.	1c	.
=7	=7	=7	=7
1D	0r	0d	0r
2r	.	.	.
2G\	.	.	.
=8	=8	=8	=8
2G\	0r	2r	0r
2G\	.	2d\	.
2F\	.	2d\	.
2G\	.	2d\	.
=9	=9	=9	=9
2.D\	0r	2.d\	0r
4E\	.	4c\	.
4F\	.	2d\	.
4G\	.	.	.
[2A\	.	[2c\	.
=10	=10	=10	=10
4A\]	0r	4c\]	0r
4G\	.	4B-\	.
1G	.	4A/	.
.	.	4G/	.
.	.	1A	.
2F#i\	.	.	.
=11	=11	=11	=11
1G	0r	1G	1r
2.C/	.	2r	2r
.	.	[2E/	[2G/
4C/	.	.	.
=12	=12	=12	=12
2C/	0r	2E/]	2G/]
2AA/	.	2F/	2A/
2GG/	.	2G/	2B-\
[2G\	.	2G/	2B-\
=13	=13	=13	=13
2G\]	0r	0A	0c
4F\	.	.	.
4E\	.	.	.
2F\	.	.	.
2A\	.	.	.
=14	=14	=14	=14
2B-\	0r	2G/	2B-\
2.c\	.	2F/	2A/
.	.	1E	1G
4B-\	.	.	.
2G\	.	.	.
=15	=15	=15	=15
1A	0r	1D	1F
1D	.	1d	1f
=16	=16	=16	=16
1C	0r	1e-i	1g
1D	.	2d\	2f\
.	.	2B-\	2d\
=17	=17	=17	=17
2C/	0r	2c\	2e\
2BB-/	.	2.d\	2.f\
1C	.	.	.
.	.	4c\	4e\
.	.	[2c\	[2e\
=18	=18	=18	=18
1AA	0r	4c\]	4e\]
.	.	4B-\	4d\
.	.	4c\	4e\
.	.	4A/	4c\
1GG	.	1B-	1d
=19	=19	=19	=19
1r	1r	1r	1r
[1GG	[1D	[1G	[1B-
=20	=20	=20	=20
2GG/]	2D/]	2G/]	2B-\]
2GG/	2D/	2G/	2B-\
1BB-	1D	1G	1B-
=21	=21	=21	=21
1AA	1E	1A	1c
1D	1F	1B-	1d
=22	=22	=22	=22
1C	1G	1c	1e
[1F	[1A	[1d	[1f
=23	=23	=23	=23
2F\]	2A/]	2d\]	2f\]
2D\	2A/	2d\	2f\
2F\	1A	1d	1f
2D\	.	.	.
=24	=24	=24	=24
1E	1G	1c	1e
[1D	1A	1d	1f
=25	=25	=25	=25
1D]	0r	2r	0r
.	.	2d\	.
2G\	.	2B-\	.
2E\	.	2c\	.
=26	=26	=26	=26
2F\	0r	2d\	0r
2G\	.	2G/	.
2C/	.	2.c\	.
[2F\	.	.	.
.	.	4B-\	.
=27	=27	=27	=27
4F\]	0r	4A/	0r
4E\	.	4G/	.
4D\	.	2.B-\	.
4C/	.	.	.
2BB-/	.	.	.
.	.	4A/	.
2C/	.	[2G/	.
=28	=28	=28	=28
1AA	0r	2G/]	0r
.	.	2F#i/	.
2GG/	.	1G	.
[2G\	.	.	.
=29	=29	=29	=29
2G\]	1r	1r	1r
4F\	.	.	.
4E\	.	.	.
1D	1A	1d	1f
=30	=30	=30	=30
2D\	1A	1d	1f
2D\	.	.	.
1F	1A	1d	1f
=31	=31	=31	=31
1E	1B-	1e	1g
1A	1c	1f	1a
=32	=32	=32	=32
0G	0d	0g	0b-
=33	=33	=33	=33
1G	1d	1g	1b-
[1B-	1d	1g	1b-
=34	=34	=34	=34
2B-\]	1d	1g	1b-
2B-\	.	.	.
[1F	[1c	[1f	[1a
=35	=35	=35	=35
2F\]	2c\]	2f\]	2a\]
2G\	2B-\	2e\	2g\
1D	1A	1d	1f
=36	=36	=36	=36
1E	1G	1c#i	1e
[1D	1A	1d	1f
=37	=37	=37	=37
1D]	0r	2r	2r
.	.	2f\	2a\
2r	.	1g	1b-
2G\	.	.	.
=38	=38	=38	=38
1c	0r	1e	1g
1A	.	1f	1a
=39	=39	=39	=39
1B-	0r	1d	1f
1G	.	2r	2r
.	.	2g\	2b-\
=40	=40	=40	=40
1r	0r	2.a\	2.cc\
.	.	4g\	4b-\
2r	.	2f\	2a\
2c\	.	2e\	2g\
=41	=41	=41	=41
2.d\	0r	1d	1f
4c\	.	.	.
2B-\	.	2r	2r
2A\	.	2f\	2a\
=42	=42	=42	=42
1G	0r	1g	1b-
2r	.	1e	1g
2C/	.	.	.
=43	=43	=43	=43
1F	0r	2f\	2a\
.	.	2d\	2f\
2E\	.	2e\	2g\
[2D\	.	[2f\	[2a\
=44	=44	=44	=44
4D\]	0r	4f\]	4a\]
4E\	.	4e\	4g\
2F\	.	4d\	4f\
.	.	4c\	4e\
2G\	.	2B-\	2d\
2E\	.	2G/	[2g\
=45	=45	=45	=45
1D	0r	1A	2g\]
.	.	.	2f#i\
1GG	.	1G	1g
=46	=46	=46	=46
1.BB-	2r	2r	2r
.	1F	1B-	1d
2BB-/	2F/	2B-\	2d\
=47	=47	=47	=47
2D\	2F/	2B-\	2d\
2D\	2F/	2B-\	2d\
[1C	1G	1c	1e
=48	=48	=48	=48
2C/]	1E	1A	1c
4BB-/	.	.	.
4AA/	.	.	.
2AA/	2r	2r	2r
2AA/	2E/	2A/	2c\
=49	=49	=49	=49
2D\	2F/	2B-\	2d\
2C/	2G/	2c\	2e\
2F\	[1A	[1d	[1f
2D\	.	.	.
=50	=50	=50	=50
2F\	2A/]	2d\]	2f\]
2C/	2G/	2c\	2e\
2D\	2F/	2B-\	2d\
2AA/	2E/	2A/	2c\
=51	=51	=51	=51
1BB-	1D	1G	1B-
1AA	1E	1A	1c
=52	=52	=52	=52
1.D	2r	2r	2r
.	1F	1B-	1d
2D\	2F/	2B-\	2d\
=53	=53	=53	=53
2BB-/	2F/	2B-\	2d\
2D\	2F/	2B-\	2d\
[1C	2.G/	2.c\	2.e\
.	4F/	4B-\	4d\
=54	=54	=54	=54
2C/]	4E/	4A/	4c\
.	4D/	4G/	4B-\
2AA/	2.E/	2.A/	2.c\
2C/	.	.	.
.	4D/	4G/	4B-\
4GG/	[2D/	[2G/	[2B-\
4AA/	.	.	.
=55	=55	=55	=55
4BB-/	2D/]	2G/]	2B-\]
4GG/	.	.	.
2AA/	2C/	2F#i/	2A/
[1GG	1D	1G	1B-
=56	=56	=56	=56
1GG]	0r	2r	0r
.	.	2G/	.
2r	.	2A/	.
2D\	.	2B-\	.
=57	=57	=57	=57
2E\	0r	2c\	0r
2F\	.	2A/	.
2D\	.	2B-\	.
2E\	.	2c\	.
=58	=58	=58	=58
2F\	0r	2d\	0r
2G\	.	2B-\	.
2E\	.	2c\	.
2F\	.	2d\	.
=59	=59	=59	=59
2G\	0r	2e-i\	0r
2A\	.	2c\	.
2F\	.	2d\	.
2G\	.	2eni\	.
=60	=60	=60	=60
2A\	0r	2f\	0r
2B-\	.	2d\	.
2G\	.	2.g\	.
[2c\	.	.	.
.	.	4f\	.
=61	=61	=61	=61
4c\]	0r	4e\	0r
4B-\	.	4d\	.
4A\	.	4c\	.
4G\	.	4B-\	.
4F\	.	4A/	.
4E\	.	4G/	.
4D\	.	4F/	.
4C/	.	4E/	.
=62	=62	=62	=62
4BB-/	0r	2D/	0r
4AA/	.	.	.
2GG/	.	1G	.
1AA	.	.	.
.	.	2F#i/	.
=63	=63	=63	=63
1GG	1r	1G	1r
1G	2r	2r	2r
.	2d\	2g\	2b-\
=64	=64	=64	=64
2B-\	2d\	2g\	2b-\
2B-\	2d\	2g\	2b-\
1F	1c	1f	1a
=65	=65	=65	=65
1G	1B-	1e	1g
1D	1A	1d	1f
=66	=66	=66	=66
2r	2r	2r	2r
2D\	2A/	2d\	2f\
2F\	2A/	2d\	2f\
2F\	2A/	2d\	2f\
=67	=67	=67	=67
1C	1G	1c	1e
1D	1F	1B-	1d
=68	=68	=68	=68
1AA	1E	1A	1c
[1C	2r	2r	2r
.	[2E/	[2A/	[2c\
=69	=69	=69	=69
2C/]	2E/]	2A/]	2c\]
2AA/	2E/	2A/	2c\
2D\	2F/	2B-\	2d\
2AA/	2E/	2A/	2c\
=70	=70	=70	=70
1D	1F	1B-	1d
[1C	1G	1c	1e
=71	=71	=71	=71
2C/]	1E	1A	1c
4BB-/	.	.	.
4AA/	.	.	.
2AA/	2r	2r	2r
2AA/	2E/	2A/	2c\
=72	=72	=72	=72
2D\	2F/	2B-\	2d\
2AA/	2E/	2A/	2c\
2D\	2F/	2B-\	2d\
[2C/	2G/	2c\	2e\
=73	=73	=73	=73
4C/]	1E	1A	1c
4BB-/	.	.	.
4C/	.	.	.
4AA/	.	.	.
2AA/	2r	2r	2r
2AA/	2E/	2A/	2c\
=74	=74	=74	=74
2D\	2F/	2B-\	2d\
2AA/	2E/	2A/	2c\
2D\	2F/	2B-\	2d\
[2C/	2G/	2c\	2e\
=75	=75	=75	=75
4C/]	[0El	[0Al	[0cl
4BB-/	.	.	.
4C/	.	.	.
4AA/	.	.	.
2C/	.	.	.
2AA/	.	.	.
=76	=76	=76	=76
0AAl	0E]	0A]	0c]
!!LO:LB:i:g=z
=77||	=77||	=77||	=77||
*>B	*>B	*>B	*>B
!!section: Crucifixus
!!!OMD: Crucifixus
*M2/1	*M2/1	*M2/1	*M2/1
*met(C|)	*met(C|)	*met(C|)	*met(C|)
1r	0r	1G	0r
1C	.	2G/	.
.	.	[2G/	.
=78	=78	=78	=78
2C/	0r	2G/]	0r
1C	.	4F/	.
.	.	4E/	.
.	.	1E	.
4BB-/	.	.	.
4AA/	.	.	.
=79	=79	=79	=79
1AA	0r	2r	0r
.	.	2F/	.
2BB-/	.	2D/	.
2GG/	.	2E/	.
=80	=80	=80	=80
2AA/	0r	2F/	0r
2BB-/	.	1G	.
1C	.	.	.
.	.	2A/	.
=81	=81	=81	=81
2D\	0r	2r	0r
2r	.	1A	.
1D	.	.	.
.	.	2B-\	.
=82	=82	=82	=82
2E\	0r	2G/	0r
2C/	.	1A	.
2D\	.	.	.
[2A\	.	2F/	.
=83	=83	=83	=83
4A\]	0r	2G/	0r
4B-\	.	.	.
2.G\	.	2B-\	.
.	.	1A	.
4F#i\	.	.	.
4F#i\	.	.	.
4E\	.	.	.
=84	=84	=84	=84
1G	0r	2G/	0r
.	.	2B-\	.
2E\	.	2c\	.
2F\	.	[2d\	.
=85	=85	=85	=85
2.G\	0r	4d\]	0r
.	.	4c\	.
.	.	4B-\	.
4F\	.	4A/	.
4E\	.	4G/	.
4D\	.	4F/	.
4C/	.	4E/	.
4BB-/	.	4D/	.
=86	=86	=86	=86
4C/	0r	4E/	0r
4BB-/	.	4D/	.
4AA/	.	2.G/	.
4GG/	.	.	.
1AA	.	.	.
.	.	4F#i/	.
.	.	4F#i/	.
.	.	4Eni/	.
=87	=87	=87	=87
1GG	1r	1G	1r
2r	2r	2r	2r
2BB-/	2D/	2G/	2B-\
=88	=88	=88	=88
2AA/	2E/	2A/	2c\
2D\	2F/	2B-\	2d\
2.C/	2G/	2c\	2e\
.	2E/	2A/	2c\
4AA/	.	.	.
=89	=89	=89	=89
2AA/	2r	2r	2r
2BB-/	2D/	2G/	2B-\
2AA/	2E/	2A/	2c\
2D\	2F/	2B-\	2d\
=90	=90	=90	=90
2.C/	2G/	2c\	2e\
.	2E/	2A/	2c\
4AA/	.	.	.
2AA/	2r	2r	2r
2BB-/	2D/	2G/	2B-\
=91	=91	=91	=91
2AA/	2E/	2A/	2c\
2D\	2F/	2B-\	2d\
1C	1G	1c	1e
=92	=92	=92	=92
1F	1A	1d	1f
1C	1G	1c	1e
=93	=93	=93	=93
1.F	2r	2r	2r
.	2c\	2f\	2a\
.	2c\	2f\	2a\
2F\	2c\	2f\	2a\
=94	=94	=94	=94
2F\	2A/	2d\	2f\
2E\	2.B-\	2.e\	2.g\
2G\	.	.	.
.	4A/	4d\	4f\
4D\	[2A/	[2d\	[2f\
4E\	.	.	.
=95	=95	=95	=95
4F\	2A/]	2d\]	2f\]
4D\	.	.	.
2E\	2G/	2c#i\	2e\
1D	1A	1d	1f
=96	=96	=96	=96
2D\	2r	2r	2r
1F	2A/	2d\	2f\
.	4c\	4f\	4a\
.	4B-\	4e\	4g\
4F\	4A/	4d\	4f\
4E\	4G/	4c\	4e\
=97	=97	=97	=97
4D\	2A/	2d\	2f\
4C/	.	.	.
2D\	2F/	2B-\	2d\
[1C	4G/	4c\	4e\
.	4F/	4B-\	4d\
.	4E/	4A/	4c\
.	4D/	4G/	4B-\
=98	=98	=98	=98
2C/]	2E/	2A/	2c\
4GG/	1D	1G	1B-
4AA/	.	.	.
4BB-/	.	.	.
4GG/	.	.	.
2AA/	2C/	2F#i/	2A/
=99	=99	=99	=99
1GG	1D	1G	1B-
1BB-	2r	2r	2r
.	2D/	2G/	2B-\
=100	=100	=100	=100
1AA	1E	1A	1c
1AA	1C	1F	1A
=101	=101	=101	=101
1GG	1D	1G	1B-
1BB-	2r	2r	2r
.	2D/	2G/	2B-\
=102	=102	=102	=102
1AA	1E	1A	1c
1AA	1C	1F	1A
=103	=103	=103	=103
1GG	1D	1G	1B-
1BB-	2r	2r	2r
.	2D/	2G/	2B-\
=104	=104	=104	=104
1AA	1E	1A	1c
1D	1F	1B-	1d
=105	=105	=105	=105
1C	1G	1c	1e
1E	2r	2r	2r
.	2G/	2c\	2e\
=106	=106	=106	=106
1D	1A	1d	1f
1G	1B-	1e	1g
=107	=107	=107	=107
1F	1c	1f	1a
1A	2r	2r	2r
.	2c\	2f\	2a\
=108	=108	=108	=108
1G	1d	1g	1b-
1G	1B-	1e	1g
=109	=109	=109	=109
2.F\	1.c	1.f	1.a
4G\	.	.	.
2A\	.	.	.
2D\	2A/	2d\	2f\
=110	=110	=110	=110
1D	1A	1d	1f
1F	2r	2r	2r
.	2A/	2d\	2f\
=111	=111	=111	=111
1E	1B-	1e	1g
1E	1G	1c	1e
=112	=112	=112	=112
1D	1A	1d	1f
1D	2r	2r	2r
.	2F/	2B-\	2d\
=113	=113	=113	=113
1C	1G	1c	1e
1C	1E	1A	1c
=114	=114	=114	=114
2.BB-/	1.F	1.B-	1.d
4C/	.	.	.
2D\	.	.	.
2GG/	2D/	2G/	2B-\
=115	=115	=115	=115
0GGl	0Dl	0Gl	0B-l
!!LO:LB:i:g=z
=116||	=116||	=116||	=116||
*>C	*>C	*>C	*>C
!!section: Et in spritum sanctum
!!!OMD: Et in spritum sanctum
*M2/1	*M2/1	*M2/1	*M2/1
*met(C|)	*met(C|)	*met(C|)	*met(C|)
1r	0r	1d	0r
1G	.	1e	.
=117	=117	=117	=117
1A	0r	1c	0r
1F	.	1d	.
=118	=118	=118	=118
1G	0r	0e	0r
[1A	.	.	.
=119	=119	=119	=119
1A]	0r	1.f	0r
[1B-	.	.	.
.	.	2e\	.
=120	=120	=120	=120
2B-\]	0r	2d\	0r
2A\	.	2c\	.
2G\	.	[1d	.
2F\	.	.	.
=121	=121	=121	=121
1.G	0r	2d\]	0r
.	.	2c\	.
.	.	2B-\	.
2F\	.	2A/	.
=122	=122	=122	=122
2E\	0r	2G/	0r
2D\	.	2F/	.
2C/	.	1G	.
2BB-/	.	.	.
=123	=123	=123	=123
1C	0r	1A	0r
1D	.	2r	.
.	.	2F/	.
=124	=124	=124	=124
2r	0r	2G/	0r
2BB-/	.	2B-\	.
2C/	.	2A/	.
2E-i\	.	2G/	.
=125	=125	=125	=125
2D\	0r	2F/	0r
2C/	.	2E/	.
2BB-/	.	2D/	.
2AA/	.	4E/	.
.	.	4D/	.
=126	=126	=126	=126
2GG/	0r	4E/	0r
.	.	4D/	.
2BB-/	.	2.G/	.
1AA	.	.	.
.	.	4F#i/	.
.	.	4F#i/	.
.	.	4Eni/	.
=127	=127	=127	=127
2GG/	2r	2G/	2r
2D\	2F/	2B-\	2d\
2D\	2F/	2B-\	2d\
2D\	2F/	2B-\	2d\
=128	=128	=128	=128
1.C	1.G	1.c	1.e-i
2D\	2F/	2B-\	2d\
=129	=129	=129	=129
1AA	1E	1A	1c
1BB-	1D	1G	1B-
=130	=130	=130	=130
2AA/	2E/	2A/	2c\
2D\	2F/	2B-\	2d\
2C/	2G/	2c\	2e\
[2F\	[2A/	[2d\	[2f\
=131	=131	=131	=131
2F\]	2A/]	2d\]	2f\]
2D\	2A/	2d\	2f\
1F	1A	1d	1f
=132	=132	=132	=132
1C	1G	1c	1e
[1F	2r	2r	2r
.	[2A/	[2d\	[2f\
=133	=133	=133	=133
2F\]	2A/]	2d\]	2f\]
2C/	2G/	2c\	2e\
2D\	2F/	2B-\	2d\
2AA/	2E/	2A/	2c\
=134	=134	=134	=134
2BB-/	1D	1G	1B-
2GG/	.	.	.
1AA	1C	1F#i	1A
=135	=135	=135	=135
0GG	1D	1G	1B-
.	1r	2r	1r
.	.	2G/	.
=136	=136	=136	=136
2r	0r	2A/	0r
2D\	.	2B-\	.
2E\	.	2c\	.
2F\	.	2d\	.
=137	=137	=137	=137
4G\	0r	4B-\	0r
4A\	.	4c\	.
4B-\	.	4d\	.
4c\	.	4e\	.
2d\	.	4f\	.
.	.	4g\	.
2c\	.	[2a\	.
=138	=138	=138	=138
2B-\	0r	4a\]	0r
.	.	4g\	.
2G\	.	1g	.
1A	.	.	.
.	.	2f#i\	.
=139	=139	=139	=139
2G\	0r	2g\	0r
2G\	.	2r	.
2B-\	.	2G/	.
2G\	.	2B-\	.
=140	=140	=140	=140
2.B-\	0r	2G/	0r
.	.	2.B-\	.
4c\	.	.	.
2d\	.	.	.
.	.	4c\	.
2G\	.	2d\	.
=141	=141	=141	=141
2r	0r	2G/	0r
2B-\	.	2d\	.
2A\	.	2e\	.
2A\	.	2f\	.
=142	=142	=142	=142
2G\	1r	1g	1r
2G\	.	.	.
2.B-\	2r	2r	2r
.	2d\	2g\	2b-\
4B-\	.	.	.
=143	=143	=143	=143
2F\	2c\	2f\	2a\
2G\	2B-\	2e\	2g\
2D\	2A/	2d\	2f\
2E-i\	2G/	2c\	2e-i\
=144	=144	=144	=144
2BB-/	2F/	2B-\	2d\
2C/	2E/	2A/	2c\
1GG	1D	1G	1B-
=145	=145	=145	=145
1AA	1C	1F#i	1A
1GG	1D	1G	1B-
=146	=146	=146	=146
1G	0r	2r	0r
.	.	1d	.
2F\	.	.	.
2E\	.	2c\	.
=147	=147	=147	=147
2.G\	0r	2B-\	0r
.	.	2.d\	.
4F\	.	.	.
2D\	.	.	.
.	.	4c\	.
2r	.	2A/	.
=148	=148	=148	=148
1F	0r	2r	0r
.	.	1c	.
2E\	.	.	.
2D\	.	2B-\	.
=149	=149	=149	=149
2.F\	0r	2A/	0r
.	.	2.c\	.
4E\	.	.	.
2C/	.	.	.
.	.	4B-\	.
2r	.	2G/	.
=150	=150	=150	=150
1G	0r	2r	0r
.	.	1d	.
2F\	.	.	.
2E\	.	2c\	.
=151	=151	=151	=151
2G\	0r	2B-\	0r
2F\	.	2d\	.
2E\	.	2c\	.
[2G\	.	2B-\	.
=152	=152	=152	=152
4G\]	0r	2.d\	0r
8F\L	.	.	.
8E\J	.	.	.
4D\	.	.	.
4E\	.	4c\	.
4F\	.	4A/	.
4G\	.	4B-\	.
[2A\	.	[2c\	.
=153	=153	=153	=153
4A\]	0r	4c\]	0r
4G\	.	4B-\	.
2.G\	.	2G/	.
.	.	1A	.
4F#i\	.	.	.
4F#i\	.	.	.
4E\	.	.	.
=154	=154	=154	=154
0G	0r	1G	1r
.	.	2r	2r
.	.	2g\	2b-\
=155	=155	=155	=155
0r	0r	2f\	2a\
.	.	2.g\	2.b-\
.	.	4f\	4a\
.	.	4g\	4b-\
.	.	4e\	4g\
=156	=156	=156	=156
0r	0r	1f	1a
.	.	2r	2r
.	.	2g\	2b-\
=157	=157	=157	=157
0r	0r	2f\	2a\
.	.	2g\	2b-\
.	.	2f\	2a\
.	.	[2g\	[2b-\
=158	=158	=158	=158
0r	0r	4g\]	4b-\]
.	.	4f\	4a\
.	.	4g\	4b-\
.	.	4e\	4g\
.	.	1f	1a
=159	=159	=159	=159
2r	2r	2r	2r
1G	1d	1g	1b-
2G\	2d\	2g\	2b-\
=160	=160	=160	=160
1B-	1d	1g	1b-
0F	0c;	0f;	0a;
=161	=161	=161	=161
*M3/1	*M3/1	*M3/1	*M3/1
*met(3)	*met(3)	*met(3)	*met(3)
1B-	0.r	0.r	0.r
1B-	.	.	.
1c	.	.	.
=162	=162	=162	=162
1.d	0.r	1B-	0.r
.	.	1B-	.
4c\	.	.	.
4B-\	.	.	.
1A	.	1c	.
=163	=163	=163	=163
1B-	0.r	1.d	0.r
1G	.	.	.
.	.	4c\	.
.	.	4B-\	.
1F	.	1A	.
=164	=164	=164	=164
0B-	0.r	1B-	0.r
.	.	1G	.
1c	.	1F	.
=165	=165	=165	=165
1.d	0.r	0B-	0d
4c\	.	.	.
4B-\	.	.	.
1A	.	1c	1e
=166	=166	=166	=166
1.D	0.r	1.d	1.f
2E\	.	2c\	2e\
1F	.	1A	1c
=167	=167	=167	=167
1.BB-	0.r	1B-	1d
.	.	1G	1B-
2C/	.	.	.
1D	.	1F	1A
=168	=168	=168	=168
1GG	0G	0B-	0d
1G	.	.	.
1E	1G	1c	1e
=169	=169	=169	=169
1D	1A	1d	1f
1G	0G	1B-	0g
1E	.	1c	.
=170	=170	=170	=170
1D	1A	1d	1f
1G	0G	1B-	0g
1E	.	1c	.
=171	=171	=171	=171
1D	1A	1.d	1.f
1BB-	0D	.	.
.	.	2c\	2e\
1D	.	2B-\	2d\
.	.	2A/	2c\
=172	=172	=172	=172
1GG	1G	1B-	1d
1.C	1E	1.c	1.e
.	1G	.	.
2D\	.	2B-\	2d\
=173	=173	=173	=173
1E-i	1C	1G	0g
0D	0F	0A	.
.	.	.	1f#i
=174	=174	=174	=174
1BB-	1D	[0.Gl	[0.gl
0C	0E-i	.	.
=175	=175	=175	=175
0.GGl	0.Dl	0.G]	0.g]
==	==	==	==
*-	*-	*-	*-
!!!RDF**kern: l=long note in original notation
!!!RDF**kern: i=editorial accidental
!!!ENC: Will Watson 16/08/2011
!!!END: 2011/08/16/
!!!EED:	Jesse Rodin
!!!EEV:	2011/10/28/
!!attribution-level@Jos: 3 (tricky)
!!!ONB:	Translated from MusicXML and edited on 2011/10/28/ by Craig Sapp
!!muse2ps: T^@{OPR}^u^@{ONM}{. }@{OTL}^C^@{COA}?\n@{SCT}^i2I100v85,85,85,150c80Q16
